Obsidian-SemiLight/actions/22s/podcast-amarok.svg

<svg viewBox="0 0 22 22" xmlns="http://www.w3.org/2000/svg"><path d="m11 3c-2.209139 0-4 1.7908568-4 4h3v1h-2.84375-.15625v3h3v1h-2.84375c.4446717 1.724309 1.9805622 3 3.84375 3 1.863188 0 3.399078-1.275691 3.84375-3h-2.84375v-1h3v-3h-.15625-2.84375v-1h3c0-2.2091432-1.790861-4-4-4zm-5.90625 9c.4190007 2.517145 2.3918632 4.48682 4.90625 4.90625v.09375l-1 2h4l-1-2v-.09375c2.514386-.41943 4.487249-2.389105 4.90625-4.90625h-1c-.466231 2.278416-2.490004 4-4.90625 4-2.4162457 0-4.4400187-1.721584-4.90625-4z" fill="#4d4d4d"/></svg>

<svg xmlns="http://www.w3.org/2000/svg" viewBox="0 0 22 22">
  <defs id="defs3051">
    <style type="text/css" id="current-color-scheme">
      .ColorScheme-Text {
        color:#4d4d4d;
      }
      </style>
  </defs>
 <path 
     style="fill:currentColor;fill-opacity:1;stroke:none" 
     d="M 11 3 C 8.790861 3 7 4.7908568 7 7 L 10 7 L 10 8 L 7.15625 8 L 7 8 L 7 11 L 10 11 L 10 12 L 7.15625 12 C 7.6009217 13.724309 9.1368122 15 11 15 C 12.863188 15 14.399078 13.724309 14.84375 12 L 12 12 L 12 11 L 15 11 L 15 8 L 14.84375 8 L 12 8 L 12 7 L 15 7 C 15 4.7908568 13.209139 3 11 3 z M 5.09375 12 C 5.5127507 14.517145 7.4856132 16.48682 10 16.90625 L 10 17 L 9 19 L 13 19 L 12 17 L 12 16.90625 C 14.514386 16.48682 16.487249 14.517145 16.90625 12 L 15.90625 12 C 15.440019 14.278416 13.416246 16 11 16 C 8.5837543 16 6.5599813 14.278416 6.09375 12 L 5.09375 12 z "
	 class="ColorScheme-Text"
     />
</svg>
